X:1
T:Rambling Boys of Pleasure
M:6/8
L:1/8
K:C
 E| F2 E F2 G| A G3 z c| d2 e f2 A| G2 c d2 e/2f/2|g-e gf-e c| A3/2- G/2- F D2 F/2F/2|\
 G2 A c2 G| G2 D D2||
